X:1
T:Title
%%score { ( 1 3 5 ) | ( 2 4 ) }
L:1/8
M:4/4
K:F
V:1 treble nm="Grand Piano"
V:3 treble 
V:5 treble 
V:2 bass 
V:4 bass 
V:1
 z4 z2[Q:1/4=110] C2 | F3 F F2 A2 | c6 c2 | d2 c2 B2 A2 | [EG]6 [EG]2 | %5
 [=B,FG]2 [B,DG]2 [A,CG]2 [G,DG]2 | [EG]4 [Ge]4 | d2 d2 c2 [F=B]2 | [Ec]6 c2 | f2 c2 B2 A2 | %10
[M:2/4] d4 | c4 |[M:4/4] B2 [CGB]2 [CFA]2 [DFA]2 | [FA]4 G2 [CE]2 | [CF]2 [CEG]2 [CFA]2 [Fc]2 | %15
 [Ff]4 [Fd]4 | [Fc]2 [FA]2 [EB]2 [B,CG]2 |[M:3/4] [A,CF]6 |[M:1/4] [Fc]2 | %19
[M:4/4] [Ec]3 [Ec] [Fc]2 [Gc]2 | [Fc]6 [Fc]2 | [Af]2 [Bf]2 [cf]2 [Af]2 | [Ge]6 z2 | f2 c2 d2 A2 | %24
 B2 G2 c2 B2 | A4 [B,EG]4 |[M:3/4] [A,CF]6 |] %27
V:2
 z4 z2 [F,A,]2 | [F,A,C]3 [F,A,C] [F,A,C]2 [F,CF]2 | [F,A,F]6 [A,CF]2 | %3
 [B,F]2 [A,CF]2 [G,CE]2[K:bass] [F,CF]2 | [C,C]6 [C,C]2 | D,2 G,,2 A,,2 =B,,2 | [C,C]4 [C,C]4 | %7
 [F,A,F]2 [F,A,F]2 [G,E]2 [G,,G,]2 | [C,G,]6[K:treble] [B,CE]2 | [A,CF]2 [A,CF]2 [G,CE]2 [F,CF]2 | %10
[M:2/4] [B,F]4 | [A,D^F]4 |[M:4/4] [G,DG]2[K:bass] E,2 F,2 A,,B,, | z4 E2 B,,2 | %14
 A,,2 C,2 F,2 [_E,A,]2 | [D,B,]4 [=B,,_A,]4 | [C,A,]2 [C,C]2 [C,G,]2 C,2 |[M:3/4] F,,6 | %18
[M:1/4] [F,A,]2 |[M:4/4] [C,G,]3 [C,G,] [C,A,]2 [C,B,]2 | [F,A,]6 [F,A,]2 | %21
 [F,C]2 [G,C]2 [A,C]2 [F,C]2 | [C,C]=B,,C,D, C,_B,,A,,G,, | %23
 [A,CF]2 [F,A,F]2 [B,F]2[K:bass] [^F,CD]2 | [G,B,D]2[K:treble] [B,DF]2 [A,CF]2 [B,DF]2 | %25
 [CF]4[K:bass] C,4 |[M:3/4] F,,6 |] %27
V:3
 x8 | x8 | x8 | x8 | x8 | x8 | x8 | x8 | x8 | x8 |[M:2/4] x4 | x4 |[M:4/4] x8 | C6 z2 | x8 | x8 | %16
 x8 |[M:3/4] x6 |[M:1/4] x2 |[M:4/4] x8 | x8 | x8 | z2 C2 C2 [B,CGe]2 | x8 | x8 | x8 |[M:3/4] x6 |] %27
V:4
 x8 | x8 | x8 | x6[K:bass] x2 | x8 | x8 | x8 | x8 | x6[K:treble] x2 | x8 |[M:2/4] x4 | x4 | %12
[M:4/4] x2[K:bass] x6 | C,6 z2 | x8 | x8 | x8 |[M:3/4] x6 |[M:1/4] x2 |[M:4/4] x8 | x8 | x8 | x8 | %23
 x6[K:bass] x2 | x2[K:treble] x6 | x4[K:bass] x4 |[M:3/4] x6 |] %27
V:5
 x8 | x8 | x8 | x8 | x8 | x8 | x8 | x8 | x8 | x8 |[M:2/4] x4 | x4 |[M:4/4] x8 | x8 | x8 | x8 | x8 | %17
[M:3/4] x6 |[M:1/4] x2 |[M:4/4] x8 | x8 | x8 | z =B, z D z _B,A,G, | x8 | x8 | x8 |[M:3/4] x6 |] %27

